!!!!SEGMENT: pl-kk--kk-i-3--020-001_anonim--paschale-kyrie.krn
!!!cenid: 15xx:627
!!!COM: Anonim
!!!COM-rismID:
!!!CDT:
!!!CNT:
!!!OPR: Paschale
!!!OTL: Kyrie
!!!OMV: 001
!!!PDT:
!!!AGN:
!!!SMS-siglum: PL-Kk
!!!SMS-shelfmark: Kk.I.3
!!!SMS-shelfwork: 020-001 M
!!!SMS-variant:
!!!SMS-altvar:
!!!NIFC-rismSourceID: 1001145519
!!!NIFC-islandoraID: pl-kk:1170
!!!URL-pdf-islandora: https://repozytorium.nifc.pl/islandora/object/pl-kk%3A1170/datastream/PDF/view
!!!URL-scan: https://polish.musicsources.pl/pl/lokalizacje/galeria/rekopisy/5919 @EN{Scan on Polish Music Herritage in Open Access Website} @PL{Skany w portalu Dziedzictwo Muzyki Polskiej w otwartym dostępie}
!!!ONB-nifc: UWAGA: Discantus (s. 83r-v, skan 0085-0086), Tenor (s. 62r, skan 0234), Bassus (s. 81r-v, skan 0384-0385)
!!!AIN: 1 alto 1 bass 1 tenor
!!!key: G:mix
**kern	**text	**kern	**text	**kern	**text
*part3	*part3	*part2	*part2	*part1	*part1
*staff3	*staff3	*staff2	*staff2	*staff1	*staff1
*I"Bassus	*	*I"Tenor	*	*I"Discantus	*
*I'B	*	*I'T	*	*I'A	*
*Ibass	*	*Itenor	*	*Ialto	*
*ICvox	*	*ICvox	*	*ICvox	*
*clefF4	*	*clefC4	*	*clefC2	*
*k[]	*	*k[]	*	*k[]	*
*G:mix	*	*G:mix	*	*G:mix	*
=1-	=1-	=1-	=1-	=1-	=1-
*lig	*	*	*	*	*
1G	Ky-	1G	Ky-	1g	Kÿ-
*	*	*lig	*	*	*
1D	.	1A	.	2f/	.
.	.	.	.	1a\	.
*Xlig	*	*	*	*	*
=2-	=2-	=2-	=2-	=2-	=2-
1C	.	1c	.	.	.
.	.	.	.	2g/	.
*	*	*Xlig	*	*	*
1D	-rie	1A	-rie	1f	-rie
=3-	=3-	=3-	=3-	=3-	=3-
2AA/	.	1A	.	1e	.
1A	.	.	.	.	.
.	.	0c	.	2a\	.
2E/	.	.	.	2g\	.
=4-	=4-	=4-	=4-	=4-	=4-
1F	.	.	.	1f	.
2C/	.	1c	.	2e/	.
*custos:G	*	*	*	*	*
2F/	.	.	.	2f/	.
!LO:LB:g=original	!	!	!	!	!
=5-	=5-	=5-	=5-	=5-	=5-
2G\	.	1B	.	1d	.
1GG	.	.	.	.	.
*	*	*	*	*custos:e	*
.	.	1G	.	2d/	.
!	!	!	!	!LO:LB:g=original	!
2C/	.	.	.	1e\	.
=6-	=6-	=6-	=6-	=6-	=6-
*	*	*lig	*	*	*
2AA/	.	1A	.	.	.
2D/	.	.	.	2d/	.
*	*	*custos:E	*	*	*
2GG/	.	1G	.	1B	.
1G\	.	.	.	.	.
*	*	*Xlig	*	*	*
!	!	!LO:LB:g=original	!	!	!
=7-	=7-	=7-	=7-	=7-	=7-
*	*	*lig	*	*	*
.	.	1E	.	2B/	.
2E/	.	.	.	2c/	.
1D	.	1F	.	1d	.
*	*	*Xlig	*	*	*
=8-	=8-	=8-	=8-	=8-	=8-
2C/	.	1G	ley-	2e/	.
2GG/	.	.	.	2d/	.
1AA	ley-	[1E;l	-son	1c	ley-
=9-	=9-	=9-	=9-	=9-	=9-
0E;;	-son	0E]	.	0B;;	-son
=10||	=10||	=10||	=10||	=10||	=10||
1C	Cri-	1c	Cri-	0g	Cri-
*custos:G	*	*	*	*	*
*	*	*lig	*	*	*
2GG/	.	1d	.	.	.
!LO:LB:g=original	!	!	!	!	!
2G\	.	.	.	.	.
=11-	=11-	=11-	=11-	=11-	=11-
2E/	.	1c	.	2g/	.
1F	-ste	.	.	1a	-ste
*	*	*Xlig	*	*	*
*	*	*lig	*	*	*
.	.	1c	-ste	.	.
*	*	*	*	*custos:f	*
2C/	.	.	.	2e/	.
!	!	!	!	!LO:LB:g=original	!
=12-	=12-	=12-	=12-	=12-	=12-
1D	.	1A	.	1f	.
*	*	*Xlig	*	*	*
1C	.	0c	.	0e	.
=13-	=13-	=13-	=13-	=13-	=13-
2C/	.	.	.	.	.
1AA	.	.	.	.	.
*	*	*lig	*	*	*
.	.	1A	.	2e/	.
2D/	.	.	.	2f/	.
=14-	=14-	=14-	=14-	=14-	=14-
2C/	.	1c	.	2e/	.
2AA/	.	.	.	2c/	.
*	*	*Xlig	*	*	*
*	*	*lig	*	*	*
2BB/	.	1G	.	2d/	.
2C/	.	.	.	2e/	.
=15-	=15-	=15-	=15-	=15-	=15-
*	*	*custos:A	*	*	*
1D	.	1F	.	1f	.
*	*	*Xlig	*	*	*
!	!	!LO:LB:g=original	!	!	!
*	*	*lig	*	*	*
2AA/	.	1A	.	1e	.
1A\	.	.	.	.	.
=16-	=16-	=16-	=16-	=16-	=16-
.	.	1B	.	2d/	.
*custos:A	*	*	*	*	*
2G\	.	.	.	2g/	.
*	*	*Xlig	*	*	*
!LO:LB:g=original	!	!	!	!	!
*	*	*lig	*	*	*
1A	.	1c	.	2e/	.
.	.	.	.	1f	.
=17-	=17-	=17-	=17-	=17-	=17-
2E/	.	1B	.	.	.
2G\	.	.	.	1e	.
*	*	*Xlig	*	*	*
*	*	*lig	*	*	*
1F	.	1A	.	.	.
*	*	*	*	*custos:e	*
.	.	.	.	2d/	.
!	!	!	!	!LO:LB:g=original	!
=18-	=18-	=18-	=18-	=18-	=18-
2E/	.	1G	.	1e	.
1C	.	.	.	.	.
*	*	*Xlig	*	*	*
.	.	1A	.	2e/	.
1D\	.	.	.	1d/	.
=19-	=19-	=19-	=19-	=19-	=19-
.	.	1F	ley-	.	.
2D/	ley-	.	.	2d/	ley-
0GG;	-son	0G;	-son	0B;;	-son
=20||	=20||	=20||	=20||	=20||	=20||
*	*	*lig	*	*	*
1G	Ky-	1G	Ki-	0g	Ky-
2E/	.	1B	.	.	.
2G\	.	.	.	.	.
*	*	*Xlig	*	*	*
=21-	=21-	=21-	=21-	=21-	=21-
*	*	*lig	*	*	*
*custos:E	*	*	*	*	*
2F/	.	1c	.	2a\	.
!LO:LB:g=original	!	!	!	!	!
2E/	.	.	.	2g/	.
2D/	.	1d	.	2f/	.
2G\	.	.	.	2d/	-rie
*	*	*Xlig	*	*	*
=22-	=22-	=22-	=22-	=22-	=22-
2E/	-ri-	1c	-rie	2g/	.
*	*	*	*	*custos:f	*
2F/	-e	.	.	2a\	.
!	!	!	!	!LO:LB:g=original	!
*	*	*lig	*	*	*
1D	.	1d	.	1f	.
=23-	=23-	=23-	=23-	=23-	=23-
2C/	.	1e	.	2e/	.
1c	.	.	.	2c/	.
*	*	*Xlig	*	*	*
*	*	*lig	*	*	*
.	.	1d	.	0g	.
2B\	.	.	.	.	.
=24-	=24-	=24-	=24-	=24-	=24-
2E/	.	1B	.	.	.
1G	.	.	.	.	.
*	*	*Xlig	*	*	*
*	*	*custos:c	*	*	*
.	.	0d	.	2g/	.
2D/	.	.	.	1a\	.
=25-	=25-	=25-	=25-	=25-	=25-
2F/	.	.	.	.	.
2G\	.	.	.	2g/	.
!	!	!LO:LB:g=original	!	!	!
1A	.	1c	.	2e/	.
.	.	.	.	2f/	.
=26-	=26-	=26-	=26-	=26-	=26-
*custos:D	*	*	*	*	*
*	*	*lig	*	*	*
1G	.	1B	.	2d/	.
.	.	.	.	1g	.
!LO:PB:g=original	!	!	!	!	!
1D	.	1A	.	.	.
.	.	.	.	2f/	.
*	*	*Xlig	*	*	*
=27-	=27-	=27-	=27-	=27-	=27-
2GG/	.	0G	.	2g/	.
2C/	.	.	.	2G/	.
*	*	*	*	*custos:c	*
2BB/	.	.	.	2B/	.
!	!	!	!	!LO:PB:g=original	!
2E/	.	.	.	2c/	.
=28-	=28-	=28-	=28-	=28-	=28-
*	*	*lig	*	*	*
1D	.	1A	.	1d	.
2GG/	.	1G	.	1B	.
1G\	.	.	.	.	.
*	*	*Xlig	*	*	*
=29-	=29-	=29-	=29-	=29-	=29-
*	*	*lig	*	*	*
.	.	1A	.	1A	.
2F/	.	.	.	.	.
2G\	.	1B	.	2G/	.
2GG/	.	.	.	2g/	.
*	*	*Xlig	*	*	*
=30-	=30-	=30-	=30-	=30-	=30-
2AA/	.	1A	.	2f/	.
2BB/	.	.	.	1g	ley-
2C/	ley-	1A	ley-	.	.
2D/	.	.	.	2f/	.
=31-	=31-	=31-	=31-	=31-	=31-
*custos:GG	*	*	*	*	*
0GG;;	-son	0G;	-son	0g;;	-son
!LO:LB:g=original	!	!	!	!	!
=32||	=32||	=32||	=32||	=32||	=32||
*lig	*	*lig	*	*	*
1GG	Ky-	1B	Ky-	1g	Ky-
1D	.	1A	.	2f/	.
.	.	.	.	1a\	.
*Xlig	*	*Xlig	*	*	*
=33-	=33-	=33-	=33-	=33-	=33-
*	*	*lig	*	*	*
2BB/	.	1B	.	.	.
*	*	*	*	*custos:f	*
2GG/	.	.	.	1g	.
1AA	.	1c	.	.	.
!	!	!	!	!LO:LB:g=original	!
.	.	.	.	2f/	.
*	*	*Xlig	*	*	*
=34-	=34-	=34-	=34-	=34-	=34-
2GG/	.	1B	-ri-	1g	-ri-
1G	.	.	.	.	.
*	*	*lig	*	*	*
.	.	1A	.	1a	.
2F\	-rie	.	.	.	.
=35-	=35-	=35-	=35-	=35-	=35-
*lig	*	*	*	*	*
*	*	*	*	*lig	*
*	*	*custos:G	*	*	*
1G	.	1G	.	1d	-e
*	*	*Xlig	*	*	*
!	!	!LO:LB:g=original	!	!	!
1C	.	0G	-e	1e	.
*Xlig	*	*	*	*Xlig	*
=36-	=36-	=36-	=36-	=36-	=36-
1G	.	.	.	2d/	.
.	.	.	.	1g	.
*	*	*lig	*	*	*
2E/	.	1B	.	.	.
2G\	.	.	.	2g/	.
=37-	=37-	=37-	=37-	=37-	=37-
2F\	.	1c	.	2a\	.
2E/	.	.	.	2g\	.
*	*	*Xlig	*	*	*
*	*	*lig	*	*	*
2D/	.	1d	.	2f/	.
*custos:E	*	*	*	*	*
2G\	.	.	.	2d/	.
!LO:LB:g=original	!	!	!	!	!
=38-	=38-	=38-	=38-	=38-	=38-
2E/	.	1c	.	2g/	.
2F/	.	.	.	2a\	.
*	*	*Xlig	*	*	*
*	*	*lig	*	*	*
1D	.	1d	.	1f	.
=39-	=39-	=39-	=39-	=39-	=39-
2C/	.	1e	.	2e/	.
*	*	*	*	*custos:g	*
1c	.	.	.	2c/	.
*	*	*Xlig	*	*	*
!	!	!	!	!LO:LB:g=original	!
*	*	*lig	*	*	*
.	.	1d	.	0g	.
2B\	.	.	.	.	.
=40-	=40-	=40-	=40-	=40-	=40-
2E/	.	1B	.	.	.
1G	.	.	.	.	.
*	*	*Xlig	*	*	*
.	.	0d	.	2g\	.
2D/	.	.	.	1a\	.
=41-	=41-	=41-	=41-	=41-	=41-
2F/	.	.	.	.	.
2G\	.	.	.	2g\	.
1A	.	1c	.	2e/	.
.	.	.	.	2f/	.
=42-	=42-	=42-	=42-	=42-	=42-
*lig	*	*lig	*	*	*
1G	.	1B	.	2d/	.
.	.	.	.	1g	.
1D	.	1A	.	.	.
.	.	.	.	2f/	.
*Xlig	*	*Xlig	*	*	*
=43-	=43-	=43-	=43-	=43-	=43-
2GG/	.	0G	.	2g\	.
2C/	.	.	.	2G/	.
*custos:E	*	*	*	*	*
2BB/	.	.	.	2B/	.
!LO:LB:g=original	!	!	!	!	!
2E/	.	.	.	2c/	.
=44-	=44-	=44-	=44-	=44-	=44-
*	*	*lig	*	*	*
1D	.	1A	.	1d	.
2GG/	.	1G	.	1B	.
1G\	.	.	.	.	.
*	*	*Xlig	*	*	*
=45-	=45-	=45-	=45-	=45-	=45-
*	*	*lig	*	*	*
.	.	1A	.	1A	.
2F/	.	.	.	.	.
*	*	*	*	*custos:g	*
2G\	.	1B	.	2G/	.
!	!	!	!	!LO:LB:g=original	!
2GG/	ley-	.	.	2g\	.
*	*	*Xlig	*	*	*
=46-	=46-	=46-	=46-	=46-	=46-
2AA/	.	1A	.	2f/	.
2BB/	.	.	.	1g	.
2C/	.	1A	ley-	.	.
2D/	.	.	.	2f/	ley-
=47-	=47-	=47-	=47-	=47-	=47-
0GG;l	-son	0G;	-son	0d 0g;;	-son
==	==	==	==	==	==
*-	*-	*-	*-	*-	*-
!!!system-decoration: [(s1,s2,s3)]
!!!RDF**kern: l = terminal long
!!!ENC: Andrzej Gręziak
!!!END: 2021-01-15
!!!ENC: Marta Lawrence
!!!END: 2022-01-23
